X:376
T:Cudna jada od Mostara grada
Z:Jack Campin, http://www.campin.me.uk/
F:Jack Campin's Nine-Note Tunebook
% last edit 03-02-2013
S:Muhamed Zero, Sevdah Bosnjaka, Sarajevo 1995
G:Bosnian Sevdah song
M:2/4
L:1/8
Q:1/4=80
K:EPhr
^GA (B(3c/B/A/)|[M:4/4] (AB- B6)|A(B/c/) d2 c2 (Bc/B/)|A8|
|:[M:3/4] dc B2 c2|[M:4/4] BA ^G2 (AG F2)|E8:|

